PortableApps/LibreOfficePortable/App/libreoffice/help/media/icon-themes/cmd/lc_fontwork.svg

<svg viewBox="0 0 24 24" xmlns="http://www.w3.org/2000/svg"><path d="m14 11.252875-1.154862.572089q-.19657.09738-.369245.05551-.164484-.04593-.304735-.167568l-2.229201-2.250839-4.4392477 2.199094.3985691 3.147071q.021432.169882-.063837.350149-.077079.176209-.2654601.26953l-1.1548603.572089-1.417121-13.2493861 1.5152413-.7506139 9.4847577 9.252874zm-8.6602198-.891277 3.6857228-1.825818-3.719561-3.7740767q-.1815404-.1648893-.3962923-.3982664-.2147522-.2333768-.4420711-.513616.075851.3658901.1267932.6804147.050942.3145242.076863.5565037z" fill="#5f5f5f"/><path d="m21.015625 11c-8.285487-.131308-14.9096176 2.718345-18.8789062 9.494141a1.0005737 1.0005737 0 1 0 1.7265624 1.011718c3.613017-6.16762 9.2910568-8.629949 17.1210938-8.505859a1.0001221 1.0001221 0 1 0 .03125-2z" fill="#4d82b8"/></svg>

<svg viewBox="0 0 24 24" xmlns="http://www.w3.org/2000/svg">
  <path
     style="fill:#5f5f5f"
     d="m 14,11.252875 -1.154862,0.572089 q -0.19657,0.09738 -0.369245,0.05551 -0.164484,-0.04593 -0.304735,-0.167568 L 9.941957,9.462067 5.5027093,11.661161 5.9012784,14.808232 q 0.021432,0.169882 -0.063837,0.350149 -0.077079,0.176209 -0.2654601,0.26953 L 4.417121,16 3,2.7506139 4.5152413,2 13.999999,11.252874 Z M 5.3397802,10.361598 9.025503,8.53578 5.305942,4.7617033 Q 5.1244016,4.596814 4.9096497,4.3634369 4.6948975,4.1300601 4.4675786,3.8498209 q 0.075851,0.3658901 0.1267932,0.6804147 0.050942,0.3145242 0.076863,0.5565037 z"
     />
  <path
     style="fill:#4d82b8"
     d="M 21.015625,11 C 12.730138,10.868692 6.1060074,13.718345 2.1367188,20.494141 a 1.0005737,1.0005737 0 1 0 1.7265624,1.011718 C 7.4762982,15.338239 13.154338,12.87591 20.984375,13 a 1.0001221,1.0001221 0 1 0 0.03125,-2 z"
     />
</svg>
